!!!COM: Palestrina, Giovanni Perluigi da
!!!OPR: Quam pulchra es
!!!OTL: Sanctus
**kern	**kern	**kern	**kern
*Ibass	*Itenor	*Icalto	*Icant
!Bassus	!Tenor	!Altus	!Cantus
*clefF4	*clefGv2	*clefG2	*clefG2
*k[]	*k[]	*k[]	*k[]
*C:ion	*C:ion	*C:ion	*C:ion
*M4/2	*M4/2	*M4/2	*M4/2
=1	=1	=1	=1
0r	0r	1r	0cc
.	.	[1f	.
=2	=2	=2	=2
0r	0r	1f]	1dd
.	.	1g	1ee
=3	=3	=3	=3
0r	0r	1a	2r
.	.	.	2cc
.	.	2r	2dd
.	.	2f	2ff
=4	=4	=4	=4
0r	0r	2g	2ee
.	.	2b-	2dd
.	.	2a	2.ee
.	.	2g	.
.	.	.	4dd
=5	=5	=5	=5
0F	0r	2.a	2.cc
.	.	4g	4b-
.	.	2.f	2a
.	.	.	[2cc
.	.	4e	.
=6	=6	=6	=6
1G	0r	1d	2cc]
.	.	.	2b
1A	.	2r	1cc
.	.	2c	.
=7	=7	=7	=7
2r	0r	2d	1a
2F	.	2f	.
2G	.	2e	2b
2B-	.	2d	2dd
=8	=8	=8	=8
2A	1r	4e	2cc
.	.	4f	.
2G	.	4g	2b
.	.	4f	.
2.A	[1c	4e	2.a
.	.	4d	.
.	.	4c	.
4G	.	4B	4b
=9	=9	=9	=9
2.F	1c]	4A	4cc
.	.	4B	4b
.	.	1c	4a
4E	.	.	4g
1D	1d	.	1f
.	.	2B	.
=10	=10	=10	=10
2C	1e	0c	2r
2E	.	.	2g
2F	2r	.	2a
2A	2c	.	2cc
=11	=11	=11	=11
2G	2d	2g	2b
2F	2f	2a	2a
1G	2e	1g	1b
.	2d	.	.
=12	=12	=12	=12
1C	2.e	2r	2.cc
.	.	2.g	.
.	4d	.	4dd
2r	2.c	.	[1ee
.	.	4g	.
[2c	.	2g	.
.	4B	.	.
=13	=13	=13	=13
4c]	1A	2a	2ee]
4c	.	.	.
2c	.	2f	4dd
.	.	.	4cc
2d	1G	2.g	2b
2B	.	.	[2g
.	.	4f	.
=14	=14	=14	=14
2.c	2r	4e	4g]
.	.	4d	4g
.	2.c	1e	2g
4B	.	.	.
4A	.	.	2a
4G	4c	.	.
2A	2c	2c	2f
=15	=15	=15	=15
1G	2d	2B	2.g
.	2B	2.g	.
.	.	.	4f
1C	2.c	.	4e
.	.	4g	4d
.	.	2g	2e
.	4B	.	.
=16	=16	=16	=16
1D	4A	4f	4d
.	4G	4e	4e
.	1A	4d	4f
.	.	4e	4g
1r	.	4f	4a
.	.	4g	4b
.	2F	[2a	[2cc
=17	=17	=17	=17
2r	1G	4a]	2cc]
.	.	4g	.
2.d	.	2g	2b
.	1r	2f	2a
4d	.	.	.
2d	.	[2a	2dd
=18	=18	=18	=18
2e	1r	4a]	2b
.	.	4g	.
2c	.	1g	2cc
2.d	2r	.	2b
.	[2d	2f#	[2a
4c	.	.	.
=19	=19	=19	=19
4B	4d]	2.g	2a]
4A	4d	.	.
2B	2d	.	1g
.	.	8a	.
.	.	8b	.
1A	2e	1cc	.
.	2c	.	2f#
=20	=20	=20	=20
0G	2.d	2b	2.g
.	.	2.g	.
.	4c	.	4a
.	4B	.	4b
.	4A	4g	4cc
.	2B	2g	[2dd
=21	=21	=21	=21
1r	1A	2a	4dd]
.	.	.	4cc
.	.	2f	1cc
2r	1G	2.g	.
[2G	.	.	4b
.	.	4f	4a
=22	=22	=22	=22
4G]	2.g	2e	1b
4G	.	.	.
2G	.	2.d	.
.	4f	.	.
2A	2e	.	1a
.	.	4c	.
2F	2f	[2c	.
=23	=23	=23	=23
2.G	1d	2c]	2r
.	.	2B	2.g
4F	.	.	.
4E	2r	1e	.
4D	.	.	4g
2E	[2c	.	2g
=24	=24	=24	=24
2F	4c]	2.A	2a
.	4c	.	.
2A	2c	.	2f
.	.	4c	.
1G	2d	1B	2.g
.	2B	.	.
.	.	.	4f
=25	=25	=25	=25
4C	1.c	2r	2e
4D	.	.	.
4E	.	2.g	2e
4F	.	.	.
1G	.	.	2d
.	.	4g	.
.	2B	2g	[2dd
=26	=26	=26	=26
2F	1A	2a	4dd]
.	.	.	4cc
2A	.	2f	1cc
1G	1d	2.g	.
.	.	.	2b
.	.	4f	.
=27	=27	=27	=27
1C	2.c	4e	2a
.	.	4d	.
.	.	2e	1g
.	4B	.	.
2D	4A	1d	.
.	4G	.	.
2D	2A	.	2f#
=28	=28	=28	=28
0G	0B	0d	0g
=29	=29	=29	=29
0r	0r	1r	1g
.	.	2r	2cc
.	.	2d	2a
=30	=30	=30	=30
0r	0r	2g	1b
.	.	2e	.
.	.	1f	2a
.	.	.	[2dd
=31	=31	=31	=31
0r	0r	2e	2dd]
.	.	1a	2cc
.	.	.	2.b
.	.	2g	.
.	.	.	8a
.	.	.	8g
=32	=32	=32	=32
0r	2r	2f	2a
.	2G	4e	2b
.	.	4d	.
.	2c	1e	2g
.	2A	.	2a
=33	=33	=33	=33
0r	1B	1d	2r
.	.	.	2g
.	2A	2e	2cc
.	[2d	[2f	2a
=34	=34	=34	=34
0r	2d]	2f]	2b
.	2c	2e	1a
.	2.B	[1d	.
.	.	.	[2g
.	8A	.	.
.	8G	.	.
=35	=35	=35	=35
1D	1A	1d]	2g]
.	.	.	2f#
2G	1B	2r	1g
2E	.	2G	.
=36	=36	=36	=36
1F	2r	2c	0r
.	2d	2A	.
2E	2g	2B	.
[2A	2e	[2c	.
=37	=37	=37	=37
2A]	2f	2c]	1r
2G	2.e	2B	.
2.F	.	1A	2r
.	4d	.	.
.	[2d	.	2dd
8E	.	.	.
8D	.	.	.
=38	=38	=38	=38
1E	2d]	1G	2gg
.	1c	.	2ee
1D	.	1r	1ff
.	2B	.	.
=39	=39	=39	=39
1C	4c	2r	2ee
.	4d	.	.
.	4e	2c	2.cc
.	4c	.	.
2r	1d	2f	.
.	.	.	8b
.	.	.	8a
2G	.	2d	2b
=40	=40	=40	=40
2c	2r	1e	2g
2A	2c	.	2a
1B-	2f	2d	2r
.	2d	[2g	2g
=41	=41	=41	=41
2A	2e	2g]	2cc
1d	2d	2f	2a
.	2r	2.e	2b
2c	[2a	.	2a
.	.	8d	.
.	.	8c	.
=42	=42	=42	=42
2.B	2a]	1d	2r
.	2g	.	1dd
8A	.	.	.
8G	.	.	.
1A	2f	1r	.
.	4e	.	2cc
.	4d	.	.
=43	=43	=43	=43
1G	1e	2r	2b
.	.	1g	4a
.	.	.	4g
1r	2.d	.	1a
.	.	2f	.
.	4A	.	.
=44	=44	=44	=44
1r	1c	2e	2g
.	.	4d	1cc
.	.	4c	.
2r	1G	2d	.
2G	.	2g	2b
=45	=45	=45	=45
2A	2r	2f	1cc
2c	2c	2e	.
2B	2d	2d	1r
[2A	2f	[2c	.
=46	=46	=46	=46
4A]	2e	4c]	0r
4G	.	4B	.
2F	4d	2A	.
.	4c	.	.
2E	2e	4G	.
.	.	4A	.
[2G	2d	4B	.
.	.	4c	.
=47	=47	=47	=47
4G]	2G	2d	2r
4F	.	.	.
2E	1c	2e	2cc
1D	.	2f	2dd
.	2B	2d	2ff
=48	=48	=48	=48
2C	2c	2e	2ee
1c	2A	2f#	4dd
.	.	.	4cc
.	2G	1g	2ee
2B	2d	.	2dd
=49	=49	=49	=49
2.c	2e	1r	1g
.	2.g	.	.
4B	.	.	.
1A	.	2r	1r
.	4f	.	.
.	[2f	2f	.
=50	=50	=50	=50
1G	2f]	2g	1r
.	2e	2b-	.
1F	1f	2a	1cc
.	.	4g	.
.	.	4f	.
=51	=51	=51	=51
0r	1d	1a	2dd
.	.	.	2ff
.	2e	2g	2ee
.	2f	[2cc	4dd
.	.	.	4cc
=52	=52	=52	=52
1r	1g	2cc]	2ee
.	.	2b	2dd
1F	1c	2a	2cc
.	.	2a	4a
.	.	.	4a
=53	=53	=53	=53
2G	2r	2g	2b-
2B-	2d	2f	2dd
2A	2e	[1a	2cc
4G	2f	.	4b
4F	.	.	4a
=54	=54	=54	=54
1A	2e	2a]	1cc
.	4d	2f	.
.	4c	.	.
1G	2e	[1g	2b
.	2d	.	[2dd
=55	=55	=55	=55
2.E	1e	0g]	4dd]
.	.	.	4cc
.	.	.	1cc
4F	.	.	.
1G	1d	.	.
.	.	.	2b
=56	=56	=56	=56
0C	0c	0e	0cc
==	==	==	==
*-	*-	*-	*-
!!!CDT: 1525/^1526/-1594/2/2
!!!OCY: Italia
!!!AGN: Mass (Parody)
!!!AST: renaissance, vocal
!!!ASW: Motet 1532 (Johannes Lupi)
!!!PWK: Masses, Book 6
!!!RNB: Cadence finals: G
!!!YOR: Le Opere Complete, v. 21, p. 73
!!!YOO: Rome, Italy: Fratelli Scalera
!!!END: 1992//
!!!EED: John Miller
!!!YEC: Copyright 2000, John Miller
!!!YEN: United States of America
!!!YEM: Rights to all derivative electronic formats reserved.
!!!YEM: Refer to licensing agreement for further details.
!!!YEM: This file must be accompanied by the licensing agreement.
!!!YEM: A copy of the licensing agreement may be found at http://www.music-cog.ohio-state.edu/HumdrumDatabases/Palestrina/license.txt
!!!EMD: converted to Humdrum by Bret Aarden
